public/img/main/icon-certificates.svg

<?xml version="1.0" encoding="UTF-8"?>
<svg width="60px" height="60px" viewBox="0 0 60 60" version="1.1" xmlns="http://www.w3.org/2000/svg" xmlns:xlink="http://www.w3.org/1999/xlink">
    <!-- Generator: sketchtool 50.2 (55047) - http://www.bohemiancoding.com/sketch -->
    <title>B03013D4-AC86-4DB2-A492-89F819A8AE59</title>
    <desc>Created with sketchtool.</desc>
    <defs>
        <polygon id="path-1" points="0 0.0393227092 21.9935956 0.0393227092 21.9935956 29.999975 0 29.999975"></polygon>
    </defs>
    <g id="REZOOME-Web" stroke="none" stroke-width="1" fill="none" fill-rule="evenodd">
        <g id="수기입력용_아이콘" transform="translate(-74.000000, -118.000000)">
            <g id="icon-certificates" transform="translate(74.000000, 118.000000)">
                <g>
                    <rect id="Rectangle" fill="#FAFBFD" x="0" y="0" width="60" height="60" rx="5"></rect>
                    <g id="Group-4" transform="translate(19.000000, 14.000000)">
                        <mask id="mask-2" fill="white">
                            <use xlink:href="#path-1"></use>
                        </mask>
                        <g id="Clip-2"></g>
                        <path d="M16.0964143,21.3142231 L16.0389641,21.3142231 L14.7768127,21.2664143 L13.8398008,22.1141434 C13.5466135,22.3786853 13.1673307,22.5252988 12.7720319,22.5252988 C12.5649004,22.5252988 12.3610359,22.4871713 12.169761,22.40749 L11.0000797,21.9294024 L9.8301992,22.40749 C9.63908367,22.4871713 9.43505976,22.5252988 9.22792829,22.5252988 C8.83262948,22.5252988 8.45338645,22.3786853 8.16015936,22.1141434 L7.22314741,21.2664143 L5.96099602,21.3142231 L5.90358566,21.3142231 C5.31079681,21.3142231 4.77215139,20.9891235 4.49482072,20.4632271 L3.90517928,19.3444223 L3.85737052,19.3285657 L3.85737052,29.1995618 C3.85737052,29.7923108 4.48207171,30.1779681 5.01119522,29.9102789 L10.6461753,27.0798805 C10.8724303,26.9684861 11.137012,26.9684861 11.3633068,27.0798805 L16.9889243,29.9134263 C17.5178884,30.1810757 18.1425896,29.7954582 18.1425896,29.2026693 L18.1425896,19.3316733 L18.0948207,19.3476892 L17.5051394,20.4663347 C17.2310757,20.9891235 16.6891633,21.3142231 16.0964143,21.3142231 Z" id="Fill-1" fill="#D6D9DF" mask="url(#mask-2)"></path>
                        <path d="M21.8717231,11.2700797 C22.0342331,11.0118725 22.0342331,10.6836653 21.8717231,10.4223506 L21.1992928,9.35131474 C21.0876992,9.17609562 21.0526793,8.96258964 21.0940737,8.76183267 L21.3617629,7.52505976 C21.4255478,7.22545817 21.3139542,6.9163745 21.0716434,6.72824701 L20.0740737,5.9538247 C19.9116036,5.82621514 19.8031574,5.6414741 19.774512,5.43418327 L19.599253,4.18171315 C19.5576992,3.87884462 19.3441932,3.62705179 19.0542729,3.5314741 L17.8526793,3.14258964 C17.6550299,3.0789243 17.489253,2.93868526 17.3935558,2.75693227 L16.8040339,1.63828685 C16.6669422,1.37681275 16.3928785,1.21434263 16.0996912,1.21434263 L16.0708865,1.21434263 L14.8087351,1.26211155 L14.7800896,1.26211155 C14.5824801,1.26211155 14.3912052,1.18884462 14.2445916,1.05498008 L13.3075797,0.207131474 C13.1578586,0.0733067729 12.9665837,0 12.7720418,0 C12.6701295,0 12.5681773,0.019123506 12.4724801,0.0605179283 L11.302759,0.538605578 C11.2072211,0.57689243 11.1051096,0.599163347 11.0031972,0.599163347 C10.901245,0.599163347 10.7991733,0.58 10.7035956,0.538605578 L9.53391434,0.0605179283 C9.43506972,0.0222310757 9.33315737,0 9.23431275,0 C9.03977092,0 8.84869522,0.0701593625 8.69881474,0.207131474 L7.76176295,1.05498008 C7.61518924,1.18884462 7.42391434,1.26211155 7.22626494,1.26211155 L7.19761952,1.26211155 L5.93546813,1.21434263 L5.90686255,1.21434263 C5.6134761,1.21434263 5.33945219,1.37681275 5.20232072,1.63828685 L4.6127988,2.75693227 C4.51710159,2.94183267 4.35136454,3.0789243 4.1538745,3.14258964 L2.95228088,3.5314741 C2.66216135,3.62394422 2.44865538,3.87884462 2.40726096,4.18171315 L2.23188247,5.43418327 C2.20323705,5.6414741 2.094751,5.82621514 1.93228088,5.9538247 L0.921962151,6.72824701 C0.679651394,6.9163745 0.568217131,7.22545817 0.631842629,7.52505976 L0.899531873,8.76183267 C0.944193227,8.96569721 0.905906375,9.17609562 0.794472112,9.35131474 L0.12188247,10.4223506 C-0.04062749,10.6803984 -0.04062749,11.0087649 0.12188247,11.2700797 L0.794472112,12.3410757 C0.905906375,12.5163347 0.941085657,12.7298406 0.899531873,12.9305976 L0.631842629,14.1673705 C0.568217131,14.4669721 0.679651394,14.7760558 0.921962151,14.9641833 L1.91953187,15.7386056 C2.08216135,15.8660558 2.19044821,16.0509562 2.21909363,16.2580876 L2.39451195,17.5107171 C2.43590637,17.8135857 2.64941235,18.0653785 2.93949203,18.1609562 L3.85100598,18.4541434 L4.14423307,18.5498406 C4.34184263,18.613506 4.50761952,18.7537052 4.60315737,18.935498 L5.19283865,20.0541434 C5.32993028,20.3156175 5.60399402,20.4780876 5.89722112,20.4780876 L5.92582669,20.4780876 L7.18813745,20.4302789 L7.21678287,20.4302789 C7.41443227,20.4302789 7.60550797,20.5035857 7.75212151,20.6374502 L8.68933267,21.4852988 C8.83901394,21.6191235 9.03028884,21.6924303 9.22467131,21.6924303 C9.32678287,21.6924303 9.42869522,21.6733068 9.52427291,21.6319124 L10.6941135,21.1538247 C10.7896514,21.1155378 10.8916036,21.0932669 10.9936753,21.0932669 C11.0956275,21.0932669 11.1975797,21.1124303 11.2932769,21.1538247 L12.4629582,21.6319124 C12.5618028,21.6701992 12.6637151,21.6924303 12.7625598,21.6924303 C12.9569422,21.6924303 13.1482171,21.6222311 13.2980578,21.4852988 L14.2351096,20.6374502 C14.3816833,20.5035857 14.5729582,20.4302789 14.7704482,20.4302789 L14.799253,20.4302789 L16.0614044,20.4780876 L16.09001,20.4780876 C16.3832371,20.4780876 16.6574602,20.3156175 16.7943924,20.0541434 L17.3840737,18.935498 C17.4796116,18.7505976 17.6453486,18.613506 17.842998,18.5498406 L18.1362251,18.4541434 L19.0478984,18.1609562 C19.3378187,18.0684861 19.5513247,17.8135857 19.5928785,17.5107171 L19.7681375,16.2580876 C19.796743,16.0509562 19.9052291,15.8660558 20.0676992,15.7386056 L21.0652689,14.9641833 C21.3075797,14.7760558 21.4191733,14.4669721 21.3553884,14.1673705 L21.0876992,12.9305976 C21.0430378,12.7267331 21.0813247,12.5163347 21.1928785,12.3410757 L21.8717231,11.2700797 Z M18.706743,14.1035857 C18.5442729,14.4828287 18.3593725,14.8493227 18.1458665,15.1999602 C17.8016036,15.7641036 17.3904482,16.29 16.9154681,16.7616733 C16.1474602,17.5298805 15.2518028,18.1323108 14.2573406,18.5529482 C13.224751,18.9896414 12.1283765,19.2095618 11.0000896,19.2095618 C9.87176295,19.2095618 8.77538845,18.9896414 7.74263944,18.5529482 C6.74506972,18.1323108 5.85251992,17.5298805 5.08451195,16.7616733 C4.60953187,16.2868526 4.19837649,15.7641036 3.85411355,15.1999602 C3.64060757,14.8493227 3.4525996,14.4860956 3.29323705,14.1035857 C2.85654382,13.0708367 2.63666335,11.9744223 2.63666335,10.8461355 C2.63666335,9.71800797 2.85654382,8.62143426 3.29323705,7.58884462 C3.71391434,6.5912749 4.31634462,5.69876494 5.08451195,4.93071713 C5.85251992,4.1625498 6.74817729,3.56011952 7.74263944,3.13944223 C8.77538845,2.70278884 9.87176295,2.48286853 11.0000896,2.48286853 C12.1283765,2.48286853 13.224751,2.70278884 14.2573406,3.13944223 C15.2549104,3.56011952 16.1474602,4.1625498 16.9154681,4.93071713 C17.6836355,5.69876494 18.2860657,6.59438247 18.706743,7.58884462 C19.1434363,8.62143426 19.3633566,9.71800797 19.3633566,10.8461355 C19.3633566,11.9744223 19.1434363,13.0708367 18.706743,14.1035857 Z" id="Fill-3" fill="#D6D9DF" mask="url(#mask-2)"></path>
                        <path d="M10.9103586,3.5 C6.81796813,3.5 3.5,6.81796813 3.5,10.9103586 C3.5,11.5893625 3.59243028,12.2490837 3.76454183,12.873745 C4.62517928,16.0132271 7.50007968,18.3207171 10.9103586,18.3207171 C14.320757,18.3207171 17.1956574,16.0132271 18.0561355,12.873745 C18.228247,12.2490837 18.3207171,11.5893625 18.3207171,10.9103586 C18.3207171,6.81796813 15.0027092,3.5 10.9103586,3.5 Z M14.2091633,14.3430279 C14.3526693,15.0156574 13.6355378,15.5415139 13.0362151,15.2005578 L10.9103586,13.9956574 L8.78119522,15.2005578 C8.1852988,15.538247 7.4649004,15.0123904 7.60840637,14.3430279 L8.11836653,11.9398406 L6.45458167,10.4386454 L6.26968127,10.2698008 C5.76294821,9.81083665 6.03063745,8.96936255 6.7063745,8.88657371 L9.1287251,8.59011952 L10.1837052,6.33039841 C10.4705179,5.71848606 11.3406375,5.71848606 11.62749,6.33039841 L12.6824701,8.59011952 L15.1048207,8.88657371 C15.7836653,8.96936255 16.0482072,9.81083665 15.5415139,10.2698008 L15.3566135,10.4386454 L13.6927888,11.9398406 L14.2091633,14.3430279 Z" id="Fill-5" fill="#D6D9DF" mask="url(#mask-2)"></path>
                    </g>
                </g>
            </g>
        </g>
    </g>
</svg>

<svg xmlns="http://www.w3.org/2000/svg" xmlns:xlink="http://www.w3.org/1999/xlink" width="60" height="60" viewBox="0 0 60 60">
    <defs>
        <path id="a" d="M0 .04h21.994V30H0z"/>
    </defs>
    <g fill="none" fill-rule="evenodd">
        <rect width="59" height="59" x=".5" y=".5" fill="#FAFBFD" stroke="#E1E5ED" rx="5"/>
        <g transform="translate(19 14)">
            <mask id="b" fill="#fff">
                <use xlink:href="#a"/>
            </mask>
            <path fill="#D6D9DF" d="M16.096 21.314h-.057l-1.262-.048-.937.848a1.592 1.592 0 0 1-1.67.293L11 21.93l-1.17.478a1.592 1.592 0 0 1-1.67-.293l-.937-.848-1.262.048h-.057a1.587 1.587 0 0 1-1.41-.85l-.589-1.12-.048-.015v9.87c0 .593.625.979 1.154.711l5.635-2.83a.811.811 0 0 1 .717 0l5.626 2.833a.795.795 0 0 0 1.154-.71v-9.871l-.048.016-.59 1.118a1.587 1.587 0 0 1-1.409.848z" mask="url(#b)"/>
            <path fill="#D6D9DF" d="M21.872 11.27a.798.798 0 0 0 0-.848l-.673-1.07a.8.8 0 0 1-.105-.59l.268-1.237a.797.797 0 0 0-.29-.797l-.998-.774a.8.8 0 0 1-.3-.52L19.6 4.182a.802.802 0 0 0-.545-.65l-1.201-.39a.797.797 0 0 1-.46-.385l-.589-1.119a.797.797 0 0 0-.704-.424h-.03l-1.261.048h-.029a.794.794 0 0 1-.535-.207l-.937-.848A.806.806 0 0 0 12.772 0a.753.753 0 0 0-.3.06l-1.17.479a.81.81 0 0 1-.299.06.752.752 0 0 1-.3-.06L9.534.06a.79.79 0 0 0-.835.147l-.936.847a.794.794 0 0 1-.536.207h-.028l-1.263-.048h-.028a.797.797 0 0 0-.705.424l-.59 1.119a.786.786 0 0 1-.458.386l-1.202.388a.798.798 0 0 0-.545.65l-.175 1.253a.8.8 0 0 1-.3.52l-1.01.774a.797.797 0 0 0-.29.797L.9 8.762a.783.783 0 0 1-.106.59l-.672 1.07a.798.798 0 0 0 0 .848l.672 1.071a.8.8 0 0 1 .106.59l-.268 1.236c-.064.3.048.61.29.797l.998.775c.162.127.27.312.3.52l.175 1.252a.802.802 0 0 0 .544.65l.912.293.293.096a.797.797 0 0 1 .46.385l.589 1.12a.797.797 0 0 0 .704.423h.029l1.262-.048h.029c.197 0 .389.074.535.207l.937.848c.15.134.341.207.536.207.102 0 .204-.019.3-.06l1.17-.478a.81.81 0 0 1 .299-.06c.102 0 .204.018.3.06l1.169.478a.791.791 0 0 0 .835-.147l.937-.848a.794.794 0 0 1 .535-.207h.03l1.261.048h.029a.797.797 0 0 0 .704-.424l.59-1.119a.785.785 0 0 1 .459-.385l.293-.096.912-.293a.798.798 0 0 0 .545-.65l.175-1.253a.799.799 0 0 1 .3-.52l.997-.774a.797.797 0 0 0 .29-.797l-.267-1.236a.782.782 0 0 1 .105-.59l.679-1.07zm-3.165 2.834a8.27 8.27 0 0 1-1.791 2.658A8.335 8.335 0 0 1 11 19.21a8.319 8.319 0 0 1-3.257-.657 8.3 8.3 0 0 1-2.658-1.791 8.371 8.371 0 0 1-1.792-2.658 8.319 8.319 0 0 1-.656-3.258c0-1.128.22-2.225.656-3.257A8.302 8.302 0 0 1 5.085 4.93 8.336 8.336 0 0 1 11 2.483c1.128 0 2.225.22 3.257.656a8.302 8.302 0 0 1 2.658 1.792 8.336 8.336 0 0 1 2.448 5.915c0 1.128-.22 2.225-.656 3.258z" mask="url(#b)"/>
            <path fill="#D6D9DF" d="M10.91 3.5a7.41 7.41 0 1 0 .001 14.821 7.41 7.41 0 0 0 0-14.821zm3.3 10.843a.796.796 0 0 1-1.174.858l-2.126-1.205L8.781 15.2c-.596.337-1.316-.189-1.173-.858l.51-2.403-1.663-1.501-.185-.17a.798.798 0 0 1 .436-1.382L9.13 8.59l1.055-2.26a.797.797 0 0 1 1.443 0l1.055 2.26 2.423.297a.797.797 0 0 1 .437 1.383l-.185.169-1.664 1.5.516 2.404z" mask="url(#b)"/>
        </g>
    </g>
</svg>
